packages/client-app/static/animations/inbox-zero/oasis/oasis.hyperesources/top-right-trunk.svg

<svg xmlns="http://www.w3.org/2000/svg" preserveAspectRatio="xMidYMid" width="56.312" height="65.937" viewBox="0 0 56.312 65.937"><defs><style>.cls-1 { fill: #b0791a; opacity: 0.5; fill-rule: evenodd; }</style></defs><path d="M34.879 22.598h20.752c.527 3.586.755 7.221.683 10.868h-25.197c1.591-3.554 2.839-7.19 3.762-10.868zm1.978-14.963h14.752c1.013 2.523 1.85 5.11 2.543 7.735h-17.871c.343-2.576.541-5.158.576-7.735zm11.105-7.627c.408.728.797 1.466 1.176 2.208h-9.418l8.242-2.208zm5.562 50.98h-34.001c2.872-3.121 5.501-6.539 7.786-10.294h28.451c-.456 3.456-1.21 6.896-2.236 10.294zm-5.945 13.761c-.236.41-.491.801-.735 1.203-8.13-1.028-16.582-1.574-25.261-1.574-7.378 0-14.591.397-21.583 1.146 4.133-2.001 8.07-4.445 11.735-7.308h39.13c-.966 2.211-2.051 4.394-3.286 6.533z" class="cls-1"/></svg>

<svg xmlns="http://www.w3.org/2000/svg" xmlns:xlink="http://www.w3.org/1999/xlink" preserveAspectRatio="xMidYMid" width="56.312" height="65.937" viewBox="0 0 56.312 65.937">
  <defs>
    <style>
      .cls-1 {
        fill: #b0791a;
        opacity: 0.5;
        fill-rule: evenodd;
      }
    </style>
  </defs>
  <path d="M34.879,22.598 L55.631,22.598 C56.158,26.184 56.386,29.819 56.314,33.466 L31.117,33.466 C32.708,29.912 33.956,26.276 34.879,22.598 ZM36.857,7.635 L51.609,7.635 C52.622,10.158 53.459,12.745 54.152,15.370 L36.281,15.370 C36.624,12.794 36.822,10.212 36.857,7.635 ZM47.962,0.008 C48.370,0.736 48.759,1.474 49.138,2.216 L39.720,2.216 L47.962,0.008 ZM53.524,50.988 L19.523,50.988 C22.395,47.867 25.024,44.449 27.309,40.694 L55.760,40.694 C55.304,44.150 54.550,47.590 53.524,50.988 ZM47.579,64.749 C47.343,65.159 47.088,65.550 46.844,65.952 C38.714,64.924 30.262,64.378 21.583,64.378 C14.205,64.378 6.992,64.775 -0.000,65.524 C4.133,63.523 8.070,61.079 11.735,58.216 L50.865,58.216 C49.899,60.427 48.814,62.610 47.579,64.749 Z" class="cls-1"/>
</svg>
